X:1
T:Come List to a Ranger
M:6/8
L:1/8
K:C
 E| G2 G/2G/2 AGG| c2 c/2c/2 AGE| G2 G/2G/2 AGG| cde d2 G| G2 G/2G/2 AGG|\
 c2 c/2c/2 AGE| GGG AGG| cde c2||
